Printex-remake/img/icons/catalog/08.svg

<svg width="98" height="98" viewBox="0 0 98 98" fill="none" xmlns="http://www.w3.org/2000/svg">
<g clip-path="url(#clip0)">
<path d="M3.21973 60.7559V64.0583" stroke="black"/>
<path d="M43.9492 84.4231V87.7255" stroke="black"/>
<path d="M42.3073 38.5365L97.6138 63.3804L33.5767 71.3188L15.0537 53.3251L42.3073 38.5365Z" fill="#E6E6E6"/>
<path d="M85.2295 60.7559V64.0583" stroke="black"/>
<path d="M85.1991 64.0547L44.2094 87.7183L3.21973 64.0547" stroke="black" stroke-linejoin="bevel"/>
<path d="M84.9316 64.4367L97.6137 63.3804L54.6988 88.6012L44.1612 87.9737L84.9316 64.4367Z" fill="#E6E6E6"/>
<path d="M73.7118 54.3953L85.1991 60.7521L44.2094 84.4157L3.21973 60.7521L20.137 50.9856" stroke="black" stroke-linejoin="bevel"/>
<path d="M1.61183 27.9739L0.730469 31.1565" stroke="black"/>
<path d="M34.5474 61.6526L33.666 64.8352" stroke="black"/>
<path d="M80.647 49.8606L79.7656 53.0432" stroke="black"/>
<path d="M79.7373 53.0319L33.9189 64.8977L0.731445 31.1528" stroke="black" stroke-linejoin="bevel"/>
<rect width="43.3421" height="43.9386" transform="matrix(0.701193 0.712971 -0.968064 0.250704 46.6641 19.7234)" fill="#F2F2F2"/>
<path d="M47.4317 16.1042L80.6191 49.8491L34.8007 61.7149L1.61328 27.9701L47.4317 16.1042Z" stroke="black" stroke-linejoin="bevel"/>
<path d="M71.436 46.0552L46.3809 36.4817L46.7309 46.9298L36.1587 44.0791L32.8564 56.3259L71.436 46.0552Z" fill="white"/>
<path d="M71.0982 45.4337L46.0431 35.8601L46.393 46.3083L35.8208 43.4575L32.5186 55.7043" stroke="black"/>
<ellipse rx="6.06105" ry="6.06105" transform="matrix(0.966342 -0.25726 0.70601 0.708202 22.7466 34.5833)" fill="white"/>
</g>
<defs>
<clipPath id="clip0">
<rect width="98" height="98" fill="white"/>
</clipPath>
</defs>
</svg>

<svg width="98" height="98" fill="none" xmlns="http://www.w3.org/2000/svg"><g clip-path="url(#clip0)"><path d="M3.22 60.756v3.302m40.73 20.365v3.302" stroke="#000"/><path d="M42.307 38.536L97.614 63.38l-64.037 7.94-18.523-17.995 27.253-14.789z" fill="#E6E6E6"/><path d="M85.23 60.756v3.302" stroke="#000"/><path d="M85.2 64.055L44.21 87.718 3.22 64.055" stroke="#000" stroke-linejoin="bevel"/><path d="M84.932 64.437l12.682-1.057-42.915 25.221-10.538-.627 40.77-23.537z" fill="#E6E6E6"/><path d="M73.712 54.395l11.487 6.357-40.99 23.664L3.22 60.752l16.918-9.766" stroke="#000" stroke-linejoin="bevel"/><path d="M1.612 27.974L.73 31.157m33.817 30.496l-.881 3.182M80.647 49.86l-.881 3.183" stroke="#000"/><path d="M79.737 53.032L33.92 64.898.73 31.153" stroke="#000" stroke-linejoin="bevel"/><path fill="#F2F2F2" d="M46.664 19.723l30.391 30.902L34.52 61.641 4.13 30.739z"/><path d="M47.432 16.104L80.619 49.85 34.801 61.715 1.613 27.97l45.819-11.866z" stroke="#000" stroke-linejoin="bevel"/><path d="M71.436 46.055l-25.055-9.573.35 10.448-10.572-2.85-3.303 12.246 38.58-10.27z" fill="#fff"/><path d="M71.098 45.434L46.043 35.86l.35 10.448-10.572-2.85-3.302 12.246" stroke="#000"/><circle transform="matrix(.96634 -.25726 .70601 .7082 22.747 34.583)" fill="#fff" r="6.061"/></g><defs><clipPath id="clip0"><path fill="#fff" d="M0 0h98v98H0z"/></clipPath></defs></svg>
